X: 17434
T: Highland Gap, The
R: jig
M: 6/8
K: Amajor
|:Ace efc|ecBc2 A/c/|d2 FFGA|EecB3|
Ace efc|ecBc2 A/c/|d2 FFGA|EcB A3:|
|:EAe cBA|FAe cBA|GAe aec|dcA B3|
EAe cBA|FAe cBA|GAe aec|BAG A3:|

